X: 44
T:Speed The Plough (Bampton)
M:2/4
L:1/8
S:Ben Lobley 1975
O:England; Oxfordshire; Bampton.
B:Lionel Bacon, A Handbook of Morris Dances
Z:http://www.themorrisring.org/music/handbook-morris-dances
P:A(AB2)4
K:G
P:A
|:GABc|dedB|dedB|dedB|c2(3cdc|B2B2|1A2A2|A4:|2A2F2|G4||
P:B
|:g2gg|g4  |g2fe|dBGB|cdec   |BcdB|1A2AA|A4:|2A2F2|G4||

